X: 4
T: The Coolin
R: waltz
M: 3/4
L: 1/8
K: Dmaj
|:AB/c/|(d2 d2) e>c|d>A F2 DF/A/|d>c de/f/ ed|d2 c2 dc/A/|
B3 c/d/ e(3d/c/B/|A2 F>A d>D|DF/A/ c3{cdc}B/A/|AG/E/ F2 DE/F/|
E2 D2 D2|D4 D2|AG F3E|D>E F>G|A^G AB cA|d>c de/f/ e>d|
d2 c2 d>c/A/|B3 c/d/ e(3d/c/B/|A2 F>A d>D|DF/A/ c{cdc}B/A/|
AG/E/ F2 DE/F/|E2 D2 D2|D4 D4| D4 z2||


Tune 1815	Setting 25125

